X:1
T:Reliance (Ladds), LM
T:Reliance (Ladds), LM
T:F. G Ladds, 1889
T:Public Domain Courtesy of the Cyber Hymnal™
C:F. G Ladds, 1889
Z:Public Domain
Z:Courtesy of the Cyber Hymnal™
%%score ( 1 2 ) ( 3 4 )
L:1/8
M:3/4
K:Ab
V:1 treble 
V:2 treble 
V:3 bass 
V:4 bass 
V:1
 E2 | (A2 B2) [Ec]2 | (e2 d2) [Fc]2 | [EF]4 [DG]2 | [CA]4 [EB]2 | (c2 B2) E2 | [EA]4 [EG]2 | %7
 [EG]4 [=DF]2 | E4 [CA]2 | (B2 c2) [Ed]2 | [Ec]4 E2 | (E2 _F2) [CG]2 | [DF]4 [FA]2 | %13
 (B2 c2) [Ed]2 | (e2 c2) [CA]2 | [DF]4 [DG]2 | [CA]4 |] %17
V:2
 E2 | E4 x2 | F4 x2 | x6 | x6 | E4 E2 | x6 | x6 | E4 x2 | E4 x2 | x4 E2 | C4 x2 | x6 | E4 x2 | %14
 E4 x2 | x6 | x4 |] %17
V:3
 [A,C]2 | ([A,C]2 [G,B,]2) A,2 | (A,2 B,2) [D,D]2 | (D3 C) [E,B,]2 | [F,A,]4 [E,G,]2 | %5
 (A,2 G,2) [D,G,]2 | [C,A,]4 [A,,C]2 | [B,,B,]4 [B,,A,]2 | [E,G,]4 [A,,A,]2 | (G,2 A,2) [E,B,]2 | %10
 A,4 [A,C]2 | [A,,A,]4 [A,,A,]2 | [D,A,]4 [D,A,]2 | ([D,G,]2 [C,A,]2) [B,,G,]2 | [C,A,]4 [F,A,]2 | %15
 (B,3 C) [E,B,]2 | [A,,A,]4 |] %17
V:4
 x2 | x4 A,2 | D,4 x2 | E,4 x2 | x6 | E,4 x2 | x6 | x6 | x6 | E,4 x2 | A,4 x2 | x6 | x6 | x6 | x6 | %15
 D,4 x2 | x4 |] %17

